X: 2225
T: LAST NIGHT'S FUN
Q: "Reel."
R: Reel.
%R: reel
B: James Kerr "Merry Melodies" v.2 p.25 #225
Z: 2016 John Chambers <jc:trillian.mit.edu>
N: The A in bar 9 is probably a typo, and should be G.
M: C
L: 1/8
K: G
GE |\
DGGB AGge | dBAc BGEG |\
DGGB AGge | dBAB G2 :|\
(3(def) |\
gfge dgBd | cABG AGef |
gfge dgbg | agab g2(ga) |\
bgeg dgBd | cABG AGEG |\
AGdB AGge | dBAB G2 |]

%%sep 1 1 500
%%sep 1 1 500

